img/svg/responsibility-icon7.svg

<svg width="80" height="80" viewBox="0 0 80 80" fill="none" xmlns="http://www.w3.org/2000/svg">
<circle cx="40" cy="40" r="40" fill="#0055FF" fill-opacity="0.03"/>
<path fill-rule="evenodd" clip-rule="evenodd" d="M31.5508 35.1239C31.5508 34.5612 32.007 34.105 32.5697 34.105H38.9381C39.5009 34.105 39.9571 34.5612 39.9571 35.1239C39.9571 35.6867 39.5009 36.1429 38.9381 36.1429H32.5697C32.007 36.1429 31.5508 35.6867 31.5508 35.1239Z" fill="#2093FF"/>
<path fill-rule="evenodd" clip-rule="evenodd" d="M31.5508 39.369C31.5508 38.8063 32.007 38.3501 32.5697 38.3501H38.9381C39.5009 38.3501 39.9571 38.8063 39.9571 39.369C39.9571 39.9318 39.5009 40.388 38.9381 40.388H32.5697C32.007 40.388 31.5508 39.9318 31.5508 39.369Z" fill="#2093FF"/>
<path fill-rule="evenodd" clip-rule="evenodd" d="M44.2871 16.0189C44.2871 15.4562 44.7433 15 45.306 15H56.9811C57.5438 15 58 15.4562 58 16.0189V27.694C58 28.2567 57.5438 28.7129 56.9811 28.7129H52.7361C52.1734 28.7129 51.7172 28.2567 51.7172 27.694V25.7277L47.4379 30.0069C48.5104 31.7323 49.1886 33.6775 49.419 35.7032C49.6822 38.0167 49.3526 40.3592 48.4613 42.5103C47.57 44.6614 46.1463 46.5505 44.3239 47.9999C42.5016 49.4493 40.3406 50.4114 38.0441 50.7958C37.489 50.8887 36.9638 50.514 36.8709 49.959C36.778 49.404 37.1526 48.8787 37.7077 48.7858C39.6633 48.4585 41.5036 47.6392 43.0554 46.4049C44.6072 45.1707 45.8196 43.562 46.5787 41.7302C47.3377 39.8984 47.6183 37.9036 47.3942 35.9335C47.1701 33.9634 46.4486 32.0826 45.2976 30.4681C45.0086 30.0628 45.0548 29.508 45.4068 29.1561L52.0156 22.5472C52.3071 22.2558 52.7453 22.1686 53.1261 22.3263C53.5068 22.484 53.7551 22.8556 53.7551 23.2677V26.6751H55.9621V17.0379H46.3249V19.2449H49.7343C50.2971 19.2449 50.7533 19.7011 50.7533 20.2639C50.7533 20.8266 50.2971 21.2828 49.7343 21.2828H45.306C44.7433 21.2828 44.2871 20.8266 44.2871 20.2639V16.0189ZM31.9505 24.0298C33.9368 23.4592 36.0262 23.3439 38.0633 23.6924C40.1004 24.0408 42.0326 24.8442 43.7163 26.0426C44.1748 26.3689 44.2819 27.0051 43.9556 27.4636C43.6293 27.9221 42.9931 28.0292 42.5346 27.7029C41.1005 26.6821 39.4547 25.9979 37.7197 25.7011C35.9846 25.4043 34.205 25.5025 32.5131 25.9885C30.8213 26.4745 29.2608 27.3358 27.9478 28.5082C26.6348 29.6806 25.6031 31.1339 24.9293 32.7602C24.2556 34.3864 23.9573 36.1436 24.0565 37.9011C24.1557 39.6585 24.65 41.371 25.5024 42.911C26.3549 44.4511 27.5437 45.7791 28.9803 46.7963C30.417 47.8134 32.0645 48.4935 33.8003 48.786C34.2908 48.8687 34.6499 49.2934 34.6499 49.7908V56.3508C34.6499 56.9135 34.1937 57.3697 33.6309 57.3697H30.405V59.5767H33.6309C34.1937 59.5767 34.6499 60.0329 34.6499 60.5957V63.8217H36.8569V60.5957C36.8569 60.0329 37.3131 59.5767 37.8759 59.5767H41.1039V57.3697H37.8759C37.3131 57.3697 36.8569 56.9135 36.8569 56.3508C36.8569 55.788 37.3131 55.3318 37.8759 55.3318H42.1228C42.6856 55.3318 43.1418 55.788 43.1418 56.3508V60.5957C43.1418 61.1584 42.6856 61.6146 42.1228 61.6146H38.8948V64.8406C38.8948 65.4033 38.4386 65.8595 37.8759 65.8595H33.6309C33.0682 65.8595 32.612 65.4033 32.612 64.8406V61.6146H29.386C28.8233 61.6146 28.3671 61.1584 28.3671 60.5957V56.3508C28.3671 55.788 28.8233 55.3318 29.386 55.3318H32.612V50.6247C30.8868 50.2208 29.2533 49.4865 27.8028 48.4595C26.1161 47.2653 24.7204 45.7061 23.7195 43.898C22.7186 42.0898 22.1384 40.0793 22.0219 38.0159C21.9054 35.9526 22.2556 33.8895 23.0466 31.9802C23.8376 30.0709 25.0489 28.3645 26.5905 26.9881C28.1321 25.6116 29.9641 24.6004 31.9505 24.0298ZM33.8994 27.9215C35.7439 27.5546 37.6558 27.7429 39.3933 28.4626C41.1308 29.1823 42.6159 30.4011 43.6607 31.9648C44.7055 33.5285 45.2632 35.367 45.2632 37.2476C45.2626 39.7692 44.2606 42.1877 42.4776 43.9707C40.6945 45.7538 38.2763 46.7558 35.7547 46.7564C33.874 46.7564 32.0353 46.1987 30.4716 45.1539C28.9079 44.109 27.6892 42.624 26.9695 40.8865C26.2498 39.149 26.0615 37.2371 26.4284 35.3925C26.7953 33.548 27.7009 31.8537 29.0307 30.5239C30.3605 29.1941 32.0548 28.2884 33.8994 27.9215Z" fill="#2093FF"/>
</svg>

<svg width="80" height="80" viewBox="0 0 80 80" fill="none" xmlns="http://www.w3.org/2000/svg"><circle cx="40" cy="40" r="40" fill="#05F" fill-opacity=".03"/><path fill-rule="evenodd" clip-rule="evenodd" d="M31.55 35.124a1.02 1.02 0 011.02-1.019h6.368a1.019 1.019 0 110 2.038H32.57a1.019 1.019 0 01-1.02-1.02zm0 4.245a1.02 1.02 0 011.02-1.019h6.368a1.019 1.019 0 110 2.038H32.57a1.019 1.019 0 01-1.02-1.019z" fill="#2093FF"/><path fill-rule="evenodd" clip-rule="evenodd" d="M44.287 16.019c0-.563.456-1.019 1.019-1.019h11.675c.563 0 1.019.456 1.019 1.019v11.675c0 .563-.456 1.019-1.019 1.019h-4.245a1.019 1.019 0 01-1.019-1.019v-1.966l-4.28 4.279a13.73 13.73 0 01-9.393 20.789 1.019 1.019 0 01-.336-2.01 11.69 11.69 0 007.59-18.318 1.019 1.019 0 01.109-1.312l6.609-6.609a1.02 1.02 0 011.74.72v3.408h2.206v-9.637h-9.637v2.207h3.41a1.019 1.019 0 110 2.038h-4.429a1.019 1.019 0 01-1.019-1.02V16.02zm-12.336 8.01a13.745 13.745 0 0111.765 2.014 1.019 1.019 0 11-1.181 1.66A11.707 11.707 0 1033.8 48.786c.49.083.85.507.85 1.005v6.56c0 .563-.456 1.019-1.02 1.019h-3.225v2.207h3.226c.563 0 1.019.456 1.019 1.019v3.226h2.207v-3.226c0-.563.456-1.02 1.019-1.02h3.228V57.37h-3.228a1.019 1.019 0 110-2.038h4.247c.563 0 1.019.456 1.019 1.019v4.245a1.02 1.02 0 01-1.02 1.019h-3.227v3.226a1.02 1.02 0 01-1.02 1.019h-4.244a1.019 1.019 0 01-1.019-1.02v-3.225h-3.226a1.019 1.019 0 01-1.019-1.02v-4.244c0-.563.456-1.02 1.019-1.02h3.226v-4.706a13.744 13.744 0 01-.662-26.595zm1.948 3.893a9.509 9.509 0 113.71 18.651 9.509 9.509 0 01-3.71-18.651z" fill="#2093FF"/></svg>
